X: 15175
T: Gillan's Apples
R: jig
M: 6/8
K: Gmajor
f|g3 B2 A|GAG GBd|ege edB|dBA A2 B|
dgg gdB|GBd g2 a|bag fge|ed^c d2:|
|:e|faa faa|faa agf|gbb gbb|gbb bag|
faa faa|faa afa|bag fge|ed^c d2:|

